contributed-vectors/offerup.svg

<svg xmlns="http://www.w3.org/2000/svg" data-name="Layer 1" viewBox="0 0 192 192"><path d="M169.15 55.42 137.81 42.8a4.69 4.69 0 0 0-4.34.38L39.8 104a5 5 0 0 0-1.24 6.91l6.85 10.55 23.28 35.84a5 5 0 0 0 6.81 1.7l93.68-60.83a4.69 4.69 0 0 0 2.1-3.81l1.22-33.77a4.43 4.43 0 0 0-.06-1 5.42 5.42 0 0 0-3.29-4.17Zm-8.91 2.66a2.56 2.56 0 1 1-1.92 3.07 2.56 2.56 0 0 1 1.92-3.07Z" style="fill:#ff837d"/><text style="font-size:18.173585891723633px;fill:#fff;font-family:Now-Bold,Now;font-weight:700" transform="rotate(-33 289.708 -43.738)">letgo</text><path d="M170.63 55.76 144.2 33.48a5.14 5.14 0 0 0-4.46-1.07L23.47 59.25a5.13 5.13 0 0 0-3.84 6.14l12.44 53.9a5.14 5.14 0 0 0 6.15 3.84l116.27-26.85a5.13 5.13 0 0 0 3.51-2.91l14-31.62a5.16 5.16 0 0 0-1.38-6Zm-9.24 7.31a2.56 2.56 0 1 1 1.92-3.07 2.56 2.56 0 0 1-1.92 3.07Z" style="fill:#fefefe"/><text style="font-size:26.51154327392578px;fill:#73ada4;font-family:Now-Bold,Now;font-weight:700" transform="rotate(-13 455.892 -144.1)">OfferUp</text></svg>

<svg id="Layer_1" data-name="Layer 1" xmlns="http://www.w3.org/2000/svg" viewBox="0 0 192 192"><path d="M169.15,55.42,137.81,42.8a4.69,4.69,0,0,0-4.34.38L39.8,104a5,5,0,0,0-1.24,6.91l6.85,10.55L68.69,157.3A5,5,0,0,0,75.5,159l93.68-60.83a4.69,4.69,0,0,0,2.1-3.81l1.22-33.77a4.43,4.43,0,0,0-.06-1A5.42,5.42,0,0,0,169.15,55.42Zm-8.91,2.66a2.56,2.56,0,1,1-1.92,3.07A2.56,2.56,0,0,1,160.24,58.08Z" style="fill:#ff837d"/><text transform="translate(70.56 150.73) rotate(-33)" style="font-size:18.173585891723633px;fill:#fff;font-family:Now-Bold, Now;font-weight:700">letgo</text><path d="M170.63,55.76,144.2,33.48a5.14,5.14,0,0,0-4.46-1.07L23.47,59.25a5.13,5.13,0,0,0-3.84,6.14l12.44,53.9a5.14,5.14,0,0,0,6.15,3.84L154.49,96.28A5.13,5.13,0,0,0,158,93.37l14-31.62a5.16,5.16,0,0,0-1.38-6Zm-9.24,7.31A2.56,2.56,0,1,1,163.31,60,2.56,2.56,0,0,1,161.39,63.07Z" style="fill:#fefefe"/><text transform="translate(44.1 98.86) rotate(-13)" style="font-size:26.51154327392578px;fill:#73ada4;font-family:Now-Bold, Now;font-weight:700">OfferUp</text></svg>
